X:518
T:Brilliancy Medley
D:Eck Robertson, Master Fiddler
Z:Nigel Gatherer
M:4/4
L:1/8
K:A
(3efg | a2 ga f2 eg | aecA BA F2 | A,2 C2 DA,CA, | B,2 E2  G2 
  eg  | aecA  Bcde  | aecA BA F2 | A,CEG  A2 f2  | ecBG    A2   :|
(3EFG | AB c2 GABG  | FEFG AGFE  | D2  FD C2 EC  | B,A,B,C DCB,C |
        A,CEF A2 cA | BABc d2 cB | ABce   fgaf   | edcB    A2  :|]
<end>
<start>
